Obsidian-Indigo/places/22/folder-music.svg

<svg height="22" width="22" xmlns="http://www.w3.org/2000/svg" xmlns:xlink="http://www.w3.org/1999/xlink"><linearGradient id="a" gradientTransform="matrix(.62762637 0 0 .79043346 1.97277 -3.815592)" gradientUnits="userSpaceOnUse" x1="27.557428" x2="27.557428" y1="7.162672" y2="21.386522"><stop offset="0" stop-color="#fff"/><stop offset=".0097359" stop-color="#fff" stop-opacity=".235294"/><stop offset=".99001008" stop-color="#fff" stop-opacity=".156863"/><stop offset="1" stop-color="#fff" stop-opacity=".392157"/></linearGradient><linearGradient id="b" gradientTransform="matrix(.54761895 0 0 .48299421 -2.10685 -7.244907)" gradientUnits="userSpaceOnUse" x1="22.934725" x2="22.809399" y1="49.629246" y2="36.657963"><stop offset="0" stop-color="#0a0a0a" stop-opacity=".498"/><stop offset="1" stop-color="#0a0a0a" stop-opacity="0"/></linearGradient><linearGradient id="c" gradientTransform="matrix(.4666607 0 0 .4821427 -.16385 -7.45535)" gradientUnits="userSpaceOnUse" x1="35.792694" x2="35.792694" y1="17.118193" y2="43.761127"><stop offset="0" stop-color="#7b92e4"/><stop offset="1" stop-color="#476bd2"/></linearGradient><linearGradient id="d" gradientTransform="matrix(.43131243 0 0 .48638011 .98956 -4.814587)" gradientUnits="userSpaceOnUse" x1="21.37039" x2="21.37039" y1="4.73244" y2="34.143417"><stop offset="0" stop-color="#fff"/><stop offset=".1106325" stop-color="#fff" stop-opacity=".235294"/><stop offset=".99001008" stop-color="#fff" stop-opacity=".156863"/><stop offset="1" stop-color="#fff" stop-opacity=".392157"/></linearGradient><linearGradient id="e" gradientTransform="matrix(.40212523 0 0 .398023 52.35056 -7.790937)" gradientUnits="userSpaceOnUse" x1="-51.786404" x2="-51.786404" y1="53.514328" y2="3.633682"><stop offset="0" stop-opacity=".321739"/><stop offset="1" stop-opacity=".278261"/></linearGradient><g transform="translate(0 6)"><path d="m2.036-3.5624971c-.277 0-.5.223-.5.5v1.5625h-.5c-.277 0-.5.223-.5.49999999v1.76464998h21v-1.76464998c0-.27699999-.223-.49999999-.5-.49999999h-11.5000002v-1.5625c0-.277-.223-.5-.5-.5z" fill="none" opacity=".8" stroke="url(#e)"/><path d="m2.036-2.9999971v1.99999999h-1v3.00000001h20v-3.00000001h-12.0000002v-1.99999999z" fill="#cecece"/><path d="m2.536-2.4999971v1.99999999h-1v2.33929001h19v-2.33929001h-12v-1.99999999z" fill="none" stroke="url(#d)" stroke-linecap="round"/><path d="m1.3230422.99375244c-.50041004.05971156-.2669271.66566916-.3068171 1.01274386.0581.2242972-.0112151 11.3060137-.0112151 11.7031007 0 .345132.16413.286657.58003.286657h19.11518c.44803.01069.35334.0052.35334-.292099.0327-.15202-.04629-12.2560315-.02971-12.4547515 0-.20925.0421-.27157847-.22081-.27157847-6.57255 0-12.9074408.0159274-19.4799978.0159274z" fill="url(#c)"/><path d="m.536.00000289 21.00001.00019998c.30338 0 .49999.21522.49999.4828l-.016078 14.07038413c.007.33856-.10002.4728-.45251.4657l-20.9275468-.008c-.30338 0-.6093-.19981-.6093-.46739l.0054348-14.06017413c0-.26757.19662-.48299.5-.48299z" fill="url(#b)" opacity=".4"/><g fill="none" stroke-linecap="round"><path d="m1.5678548 1.4681481-.02975 12.0096739 18.9562698.0063.0098-11.9840701z" opacity=".5" stroke="url(#a)"/><path d="m.84522.50000293c-.50041.0575-.28945188.66312237-.32934188.99734237.0581.21599-.004618 12.3121997-.004618 12.6945797 0 .33235.16413.27604.58003.27604 6.15466 0 13.9002366.01593 20.0548966.01593.44803.0103.35334.005.35334-.28128.0327-.14639.01742-13.24972907.034-13.44108907 0-.2015.0421-.26152-.22081-.26152-6.57255 0-13.89494 0-20.467497-.000003z" opacity=".3" stroke="#000" stroke-linejoin="round"/></g></g><path d="m13.375 0-7.375 1.90625c-.554.1484439-1 .738957-1 1.3125v9.09375c-.5617711-.294156-1.283256-.413102-2.03125-.21875-1.3497637.350711-2.19558448 1.484152-1.90625 2.53125.2893345 1.047098 1.6189863 1.631961 2.96875 1.28125 1.0768335-.279795 1.8191167-1.071448 1.9375-1.90625l.03125-8.59375 7-1.875v6.78125c-.561771-.294156-1.283256-.4131024-2.03125-.21875-1.3497637.350711-2.1955845 1.484152-1.90625 2.53125s1.618986 1.631961 2.96875 1.28125c1.076834-.279795 1.819117-1.071448 1.9375-1.90625l.03125-11.1875c0-.43015725-.265844-.75198835-.625-.8125z" fill="#24439f" transform="matrix(.69261713885 0 0 .68714726455 5.30336053374 7.99999985283)"/></svg>

<?xml version="1.0" encoding="UTF-8" standalone="no"?>
<svg
   xmlns:dc="http://purl.org/dc/elements/1.1/"
   xmlns:cc="http://creativecommons.org/ns#"
   xmlns:rdf="http://www.w3.org/1999/02/22-rdf-syntax-ns#"
   xmlns:svg="http://www.w3.org/2000/svg"
   xmlns="http://www.w3.org/2000/svg"
   xmlns:xlink="http://www.w3.org/1999/xlink"
   width="22"
   height="22"
   id="svg10994"
   version="1.1">
  <defs
     id="defs10996">
    <linearGradient
       xlink:href="#linearGradient3454-2-5-0-3-4-1"
       id="linearGradient4440-9"
       gradientUnits="userSpaceOnUse"
       gradientTransform="matrix(0.62762637,0,0,0.79043346,1.97277,-3.8155921)"
       x1="27.557428"
       y1="7.162672"
       x2="27.557428"
       y2="21.386522" />
    <linearGradient
       id="linearGradient3454-2-5-0-3-4-1">
      <stop
         offset="0"
         style="stop-color:#ffffff;stop-opacity:1"
         id="stop3456-4-9-38-1-8-8" />
      <stop
         offset="0.0097359"
         style="stop-color:#ffffff;stop-opacity:0.23529412"
         id="stop3458-39-80-3-5-5-8" />
      <stop
         offset="0.99001008"
         style="stop-color:#ffffff;stop-opacity:0.15686275"
         id="stop3460-7-0-2-4-2-7" />
      <stop
         offset="1"
         style="stop-color:#ffffff;stop-opacity:0.39215687"
         id="stop3462-0-9-8-7-2-3" />
    </linearGradient>
    <linearGradient
       xlink:href="#linearGradient6129-963-697-142-998-580-273-5-3"
       id="linearGradient4436-4"
       gradientUnits="userSpaceOnUse"
       gradientTransform="matrix(0.54761895,0,0,0.48299421,-2.10685,-7.2449071)"
       x1="22.934725"
       y1="49.629246"
       x2="22.809399"
       y2="36.657963" />
    <linearGradient
       id="linearGradient6129-963-697-142-998-580-273-5-3">
      <stop
         id="stop2661-1-2"
         style="stop-color:#0a0a0a;stop-opacity:0.498"
         offset="0" />
      <stop
         id="stop2663-85-8"
         style="stop-color:#0a0a0a;stop-opacity:0"
         offset="1" />
    </linearGradient>
    <linearGradient
       xlink:href="#linearGradient4632-0-6-4-7"
       id="linearGradient4430-9"
       gradientUnits="userSpaceOnUse"
       gradientTransform="matrix(0.4666607,0,0,0.4821427,-0.16384998,-7.4553496)"
       x1="35.792694"
       y1="17.118193"
       x2="35.792694"
       y2="43.761127" />
    <linearGradient
       id="linearGradient4632-0-6-4-3-4-0">
      <stop
         style="stop-color:#bababa;stop-opacity:1;"
         offset="0"
         id="stop4634-4-4-7-7-4-8" />
      <stop
         style="stop-color:#838383;stop-opacity:1;"
         offset="1"
         id="stop4636-3-1-5-1-3-9" />
    </linearGradient>
    <linearGradient
       xlink:href="#linearGradient4325-0"
       id="linearGradient4418-4"
       gradientUnits="userSpaceOnUse"
       gradientTransform="matrix(0.43131243,0,0,0.48638011,0.98956,-4.8145871)"
       x1="21.37039"
       y1="4.73244"
       x2="21.37039"
       y2="34.143417" />
    <linearGradient
       id="linearGradient4325-0">
      <stop
         offset="0"
         style="stop-color:#ffffff;stop-opacity:1"
         id="stop4327-4" />
      <stop
         offset="0.1106325"
         style="stop-color:#ffffff;stop-opacity:0.23529412"
         id="stop4329-5" />
      <stop
         offset="0.99001008"
         style="stop-color:#ffffff;stop-opacity:0.15686275"
         id="stop4331-6" />
      <stop
         offset="1"
         style="stop-color:#ffffff;stop-opacity:0.39215687"
         id="stop4333-7" />
    </linearGradient>
    <linearGradient
       id="linearGradient4646-7-4-3-5-6">
      <stop
         offset="0"
         style="stop-color:#f9f9f9;stop-opacity:1"
         id="stop4648-8-0-3-6-5" />
      <stop
         offset="1"
         style="stop-color:#d8d8d8;stop-opacity:1"
         id="stop4650-1-7-3-4-8" />
    </linearGradient>
    <linearGradient
       id="linearGradient3104-8-8-97-4-6-11-5-5-0-5">
      <stop
         offset="0"
         style="stop-color:#000000;stop-opacity:0.32173914"
         id="stop3106-5-4-3-5-0-2-1-0-6-6" />
      <stop
         offset="1"
         style="stop-color:#000000;stop-opacity:0.27826086"
         id="stop3108-4-3-7-8-2-0-7-9-1-4" />
    </linearGradient>
    <linearGradient
       y2="3.6336823"
       x2="-51.786404"
       y1="53.514328"
       x1="-51.786404"
       gradientTransform="matrix(0.40212523,0,0,0.398023,52.35056,-7.7909371)"
       gradientUnits="userSpaceOnUse"
       id="linearGradient10992"
       xlink:href="#linearGradient3104-8-8-97-4-6-11-5-5-0-5" />
    <linearGradient
       id="linearGradient4632-0-6-4-7">
      <stop
         style="stop-color:#7b92e4;stop-opacity:1;"
         offset="0"
         id="stop4634-4-4-7-5" />
      <stop
         style="stop-color:#476bd2;stop-opacity:1;"
         offset="1"
         id="stop4636-3-1-5-3" />
    </linearGradient>
  </defs>
  <metadata
     id="metadata10999">
    <rdf:RDF>
      <cc:Work
         rdf:about="">
        <dc:format>image/svg+xml</dc:format>
        <dc:type
           rdf:resource="http://purl.org/dc/dcmitype/StillImage" />
        <dc:title></dc:title>
      </cc:Work>
    </rdf:RDF>
  </metadata>
  <g
     id="layer1"
     transform="translate(0,6)">
    <path
       style="opacity:0.8;color:#000000;fill:none;stroke:url(#linearGradient10992);stroke-width:1;stroke-linecap:butt;stroke-linejoin:miter;stroke-miterlimit:4;stroke-opacity:1;stroke-dasharray:none;stroke-dashoffset:0;marker:none;visibility:visible;display:inline;overflow:visible;enable-background:accumulate"
       d="m 2.036,-3.5624971 c -0.277,0 -0.5,0.223 -0.5,0.5 l 0,1.5625 -0.5,0 c -0.277,0 -0.5,0.223 -0.5,0.49999999 l 0,1.76464998 21,0 0,-1.76464998 c 0,-0.27699999 -0.223,-0.49999999 -0.5,-0.49999999 l -11.5000002,0 0,-1.5625 c 0,-0.277 -0.223,-0.5 -0.5,-0.5 z"
       id="rect3186" />
    <path
       style="color:#000000;fill:#cecece;fill-opacity:1;fill-rule:nonzero;stroke:none;stroke-width:1;marker:none;visibility:visible;display:inline;overflow:visible;enable-background:accumulate"
       d="m 2.036,-2.9999971 0,1.99999999 -1,0 0,3.00000001 20,0 0,-3.00000001 -12.0000002,0 0,-1.99999999 z"
       id="rect3409-5-2" />
    <path
       style="color:#000000;fill:none;stroke:url(#linearGradient4418-4);stroke-width:1;stroke-linecap:round;stroke-linejoin:miter;stroke-miterlimit:4;stroke-opacity:1;stroke-dasharray:none;stroke-dashoffset:0;marker:none;visibility:visible;display:inline;overflow:visible;enable-background:accumulate"
       d="m 2.536,-2.4999971 0,1.99999999 -1,0 0,2.33929001 19,0 0,-2.33929001 -12,0 0,-1.99999999 z"
       id="rect3409-3" />
    <path
       d="M 1.3230422,0.99375244 C 0.82263216,1.053464 1.0561151,1.6594216 1.0162251,2.0064963 1.0743251,2.2307935 1.00501,13.31251 1.00501,13.709597 c 0,0.345132 0.16413,0.286657 0.58003,0.286657 6.15466,0 12.96052,0 19.11518,0 0.44803,0.01069 0.35334,0.0052 0.35334,-0.292099 0.0327,-0.15202 -0.04629,-12.2560315 -0.02971,-12.4547515 0,-0.20925 0.0421,-0.27157847 -0.22081,-0.27157847 -6.57255,0 -12.9074408,0.0159274 -19.4799978,0.0159274 z"
       id="path3388-3"
       style="color:#000000;fill:url(#linearGradient4430-9);fill-opacity:1.0;fill-rule:nonzero;stroke:none;stroke-width:0.99999988;marker:none;visibility:visible;display:inline;overflow:visible;enable-background:accumulate" />
    <path
       d="M 0.536,2.8851241e-6 21.53601,2.0286512e-4 c 0.30338,0 0.49999,0.21522000488 0.49999,0.48280000488 L 22.019922,14.553387 c 0.007,0.33856 -0.10002,0.4728 -0.45251,0.4657 l -20.9275468,-0.008 c -0.30338,0 -0.6093,-0.19981 -0.6093,-0.46739 L 0.036,0.48352287 c 0,-0.26757 0.19662,-0.48299000488 0.5,-0.48299000488 z"
       id="path6127-36-9"
       style="opacity:0.4;fill:url(#linearGradient4436-4);fill-opacity:1;stroke:none" />
    <path
       style="opacity:0.5;color:#000000;fill:none;stroke:url(#linearGradient4440-9);stroke-width:1.00000012;stroke-linecap:round;stroke-linejoin:miter;stroke-miterlimit:4;stroke-opacity:1;stroke-dasharray:none;stroke-dashoffset:0;marker:none;visibility:visible;display:inline;overflow:visible;enable-background:accumulate"
       d="m 1.5678548,1.4681481 -0.02975,12.0096739 18.9562698,0.0063 0.0098,-11.9840701 z"
       id="path3309-8" />
    <path
       d="m 0.84522,0.50000293 c -0.50041,0.0575 -0.28945188,0.66312237 -0.32934188,0.99734237 0.0581,0.21599 -0.004618,12.3121997 -0.004618,12.6945797 0,0.33235 0.16413,0.27604 0.58003,0.27604 6.15466,0 13.9002366,0.01593 20.0548966,0.01593 0.44803,0.0103 0.35334,0.005 0.35334,-0.28128 0.0327,-0.14639 0.01742,-13.24972907 0.034,-13.44108907 0,-0.2015 0.0421,-0.26152 -0.22081,-0.26152 -6.57255,0 -13.89494,0 -20.467497,-3e-6 z"
       id="path3388-3-7"
       style="opacity:0.3;color:#000000;fill:none;stroke:#000000;stroke-width:0.99999988;stroke-linecap:round;stroke-linejoin:round;stroke-miterlimit:4;stroke-opacity:1;stroke-dasharray:none;stroke-dashoffset:0;marker:none;visibility:visible;display:inline;overflow:visible;enable-background:accumulate" />
  </g>
  <g
     id="g4856"
     transform="matrix(0.32713683,0,0,0.33670223,5.4129705,-7.3919167)">
    <g
       style="color:#bebebe;display:inline;overflow:visible;visibility:visible;fill:#24439f;fill-opacity:1;fill-rule:nonzero;stroke:none;stroke-width:1;marker:none;enable-background:accumulate"
       id="layer1-3"
       transform="matrix(2.1172093,0,0,2.0408159,-0.33506034,45.713736)">
      <path
         style="color:#bebebe;display:inline;overflow:visible;visibility:visible;fill:#24439f;fill-opacity:1;fill-rule:nonzero;stroke:none;stroke-width:1;marker:none;enable-background:accumulate"
         id="rect2996"
         d="M 13.375,0 6,1.90625 C 5.446,2.0546939 5,2.645207 5,3.21875 V 12.3125 C 4.4382289,12.018344 3.716744,11.899398 2.96875,12.09375 1.6189863,12.444461 0.77316552,13.577902 1.0625,14.625 1.3518345,15.672098 2.6814863,16.256961 4.03125,15.90625 5.1080835,15.626455 5.8503667,14.834802 5.96875,14 L 6,5.40625 13,3.53125 V 10.3125 C 12.438229,10.018344 11.716744,9.8993976 10.96875,10.09375 9.6189863,10.444461 8.7731655,11.577902 9.0625,12.625 c 0.2893345,1.047098 1.618986,1.631961 2.96875,1.28125 C 13.108084,13.626455 13.850367,12.834802 13.96875,12 L 14,0.8125 C 14,0.38234275 13.734156,0.06051165 13.375,0 Z" />
    </g>
  </g>
</svg>
